images/portal/4131.svg

<?xml version="1.0" standalone="no"?><!DOCTYPE svg PUBLIC "-//W3C//DTD SVG 1.1//EN" "http://www.w3.org/Graphics/SVG/1.1/DTD/svg11.dtd"><svg xmlns:xlink="http://www.w3.org/1999/xlink" version="1.1" class="highcharts-root" style="font-family:arial;font-size:12px;" xmlns="http://www.w3.org/2000/svg" width="485" height="415"><desc>Created with Highstock 5.0.14</desc><defs><clipPath id="highcharts-csh9q7w-6"><rect x="0" y="0" width="218" height="275" fill="none"></rect></clipPath><clipPath id="highcharts-csh9q7w-7"><rect x="0" y="0" width="218" height="275" fill="none"></rect></clipPath></defs><rect fill="#fbfbfb" class="highcharts-background" x="0" y="0" width="485" height="415" rx="0" ry="0"></rect><rect fill="none" class="highcharts-plot-background" x="53" y="75" width="218" height="275"></rect><g class="highcharts-pane-group"></g><g class="highcharts-grid highcharts-xaxis-grid "><path fill="none" class="highcharts-grid-line" d="M 80.5 75 L 80.5 350" opacity="1"></path><path fill="none" class="highcharts-grid-line" d="M 134.5 75 L 134.5 350" opacity="1"></path><path fill="none" class="highcharts-grid-line" d="M 188.5 75 L 188.5 350" opacity="1"></path><path fill="none" class="highcharts-grid-line" d="M 242.5 75 L 242.5 350" opacity="1"></path></g><g class="highcharts-grid highcharts-yaxis-grid "><path fill="none" stroke="#e6e6e6" stroke-width="1" class="highcharts-grid-line" d="M 53 350.5 L 271 350.5" opacity="1"></path><path fill="none" stroke="#e6e6e6" stroke-width="1" class="highcharts-grid-line" d="M 53 281.5 L 271 281.5" opacity="1"></path><path fill="none" stroke="#e6e6e6" stroke-width="1" class="highcharts-grid-line" d="M 53 213.5 L 271 213.5" opacity="1"></path><path fill="none" stroke="#e6e6e6" stroke-width="1" class="highcharts-grid-line" d="M 53 144.5 L 271 144.5" opacity="1"></path><path fill="none" stroke="#e6e6e6" stroke-width="1" class="highcharts-grid-line" d="M 53 74.5 L 271 74.5" opacity="1"></path></g><rect fill="none" class="highcharts-plot-border" x="53" y="75" width="218" height="275"></rect><g class="highcharts-axis highcharts-xaxis "><path fill="none" class="highcharts-tick" stroke="#FFFFFF" stroke-width="1" d="M 80.5 350 L 80.5 360" opacity="1"></path><path fill="none" class="highcharts-tick" stroke="#FFFFFF" stroke-width="1" d="M 134.5 350 L 134.5 360" opacity="1"></path><path fill="none" class="highcharts-tick" stroke="#FFFFFF" stroke-width="1" d="M 188.5 350 L 188.5 360" opacity="1"></path><path fill="none" class="highcharts-tick" stroke="#FFFFFF" stroke-width="1" d="M 242.5 350 L 242.5 360" opacity="1"></path><path fill="none" class="highcharts-axis-line" stroke="#ccd6eb" stroke-width="1" d="M 53 350.5 L 271 350.5"></path></g><g class="highcharts-axis highcharts-yaxis "><path fill="none" class="highcharts-axis-line" d="M 53 75 L 53 350"></path></g><g class="highcharts-series-group"><g class="highcharts-series highcharts-series-0 highcharts-column-series highcharts-color-undefined " transform="translate(53,75) scale(1 1)" clip-path="url(#highcharts-csh9q7w-7)"><rect x="15.5" y="-0.5" width="26" height="3" fill="#662673" stroke="#ffffff" stroke-width="1" class="highcharts-point"></rect><rect x="68.5" y="-0.5" width="26" height="3" fill="#662673" stroke="#ffffff" stroke-width="1" class="highcharts-point"></rect><rect x="122.5" y="-0.5" width="26" height="3" fill="#662673" stroke="#ffffff" stroke-width="1" class="highcharts-point"></rect><rect x="176.5" y="-0.5" width="26" height="3" fill="#662673" stroke="#ffffff" stroke-width="1" class="highcharts-point"></rect></g><g class="highcharts-markers highcharts-series-0 highcharts-column-series highcharts-color-undefined " transform="translate(53,75) scale(1 1)" clip-path="none"></g><g class="highcharts-series highcharts-series-1 highcharts-column-series highcharts-color-undefined " transform="translate(53,75) scale(1 1)" clip-path="url(#highcharts-csh9q7w-7)"><rect x="15.5" y="2.5" width="26" height="41" fill="#73B97C" stroke="#ffffff" stroke-width="1" class="highcharts-point"></rect><rect x="68.5" y="2.5" width="26" height="41" fill="#73B97C" stroke="#ffffff" stroke-width="1" class="highcharts-point"></rect><rect x="122.5" y="2.5" width="26" height="41" fill="#73B97C" stroke="#ffffff" stroke-width="1" class="highcharts-point"></rect><rect x="176.5" y="2.5" width="26" height="41" fill="#73B97C" stroke="#ffffff" stroke-width="1" class="highcharts-point"></rect></g><g class="highcharts-markers highcharts-series-1 highcharts-column-series highcharts-color-undefined " transform="translate(53,75) scale(1 1)" clip-path="none"></g><g class="highcharts-series highcharts-series-2 highcharts-column-series highcharts-color-undefined " transform="translate(53,75) scale(1 1)" clip-path="url(#highcharts-csh9q7w-7)"><rect x="15.5" y="43.5" width="26" height="28" fill="#008AC3" stroke="#ffffff" stroke-width="1" class="highcharts-point"></rect><rect x="68.5" y="43.5" width="26" height="28" fill="#008AC3" stroke="#ffffff" stroke-width="1" class="highcharts-point"></rect><rect x="122.5" y="43.5" width="26" height="28" fill="#008AC3" stroke="#ffffff" stroke-width="1" class="highcharts-point"></rect><rect x="176.5" y="43.5" width="26" height="28" fill="#008AC3" stroke="#ffffff" stroke-width="1" class="highcharts-point"></rect></g><g class="highcharts-markers highcharts-series-2 highcharts-column-series highcharts-color-undefined " transform="translate(53,75) scale(1 1)" clip-path="none"></g><g class="highcharts-series highcharts-series-3 highcharts-column-series highcharts-color-undefined " transform="translate(53,75) scale(1 1)" clip-path="url(#highcharts-csh9q7w-7)"><rect x="15.5" y="71.5" width="26" height="204" fill="#CD9C00" stroke="#ffffff" stroke-width="1" class="highcharts-point"></rect><rect x="68.5" y="71.5" width="26" height="204" fill="#CD9C00" stroke="#ffffff" stroke-width="1" class="highcharts-point"></rect><rect x="122.5" y="71.5" width="26" height="204" fill="#CD9C00" stroke="#ffffff" stroke-width="1" class="highcharts-point"></rect><rect x="176.5" y="71.5" width="26" height="204" fill="#CD9C00" stroke="#ffffff" stroke-width="1" class="highcharts-point"></rect></g><g class="highcharts-markers highcharts-series-3 highcharts-column-series highcharts-color-undefined " transform="translate(53,75) scale(1 1)" clip-path="none"></g></g><text x="10" text-anchor="start" class="highcharts-title" style="color:#000000;font-size:14px;font-weight:bold;fill:#000000;" y="21"><tspan>Wohnungsbelegung</tspan></text><text x="10" text-anchor="start" class="highcharts-subtitle" style="color:#000000;font-size:12px;font-weight:normal;font-family:arial;fill:#000000;" y="40"><tspan>nach Belegungsart</tspan></text><g class="highcharts-legend" transform="translate(283,154)"><rect fill="none" class="highcharts-legend-box" rx="0" ry="0" x="0" y="0" width="191" height="87" visibility="visible"></rect><g><g><g class="highcharts-legend-item highcharts-column-series highcharts-color-undefined highcharts-series-0" transform="translate(8,3)"><text x="21" style="color:#333333;font-size:12px;font-weight:normal;cursor:pointer;fill:#333333;" text-anchor="start" y="15"><tspan>sonstige Wohnungen</tspan></text><rect x="2" y="4" width="12" height="12" fill="#662673" class="highcharts-point"></rect></g><g class="highcharts-legend-item highcharts-column-series highcharts-color-undefined highcharts-series-1" transform="translate(8,22)"><text x="21" y="15" style="color:#333333;font-size:12px;font-weight:normal;cursor:pointer;fill:#333333;" text-anchor="start"><tspan>Eigentümerwohnungen</tspan></text><rect x="2" y="4" width="12" height="12" fill="#73B97C" class="highcharts-point"></rect></g><g class="highcharts-legend-item highcharts-column-series highcharts-color-undefined highcharts-series-2" transform="translate(8,41)"><text x="21" y="15" style="color:#333333;font-size:12px;font-weight:normal;cursor:pointer;fill:#333333;" text-anchor="start"><tspan>Genossenschaftswohnungen</tspan></text><rect x="2" y="4" width="12" height="12" fill="#008AC3" class="highcharts-point"></rect></g><g class="highcharts-legend-item highcharts-column-series highcharts-color-undefined highcharts-series-3" transform="translate(8,60)"><text x="21" y="15" style="color:#333333;font-size:12px;font-weight:normal;cursor:pointer;fill:#333333;" text-anchor="start"><tspan>Mietwohnungen</tspan></text><rect x="2" y="4" width="12" height="12" fill="#CD9C00" class="highcharts-point"></rect></g></g></g></g><g class="highcharts-axis-labels highcharts-xaxis-labels "><text x="81.45812807881666" style="color:#000000;cursor:default;font-size:11px;fill:#000000;" text-anchor="middle" transform="translate(0,0)" y="369" opacity="1"><tspan>2013</tspan></text><text x="135.15270935960555" style="color:#000000;cursor:default;font-size:11px;fill:#000000;" text-anchor="middle" transform="translate(0,0)" y="369" opacity="1"><tspan>2014</tspan></text><text x="188.84729064039445" style="color:#000000;cursor:default;font-size:11px;fill:#000000;" text-anchor="middle" transform="translate(0,0)" y="369" opacity="1"><tspan>2015</tspan></text><text x="242.54187192118334" style="color:#000000;cursor:default;font-size:11px;fill:#000000;" text-anchor="middle" transform="translate(0,0)" y="369" opacity="1"><tspan>2016</tspan></text></g><g class="highcharts-axis-labels highcharts-yaxis-labels "><text x="38" style="color:#000000;cursor:default;font-size:11px;fill:#000000;" text-anchor="end" transform="translate(0,0)" y="355" opacity="1"><tspan>0%</tspan></text><text x="38" style="color:#000000;cursor:default;font-size:11px;fill:#000000;" text-anchor="end" transform="translate(0,0)" y="286" opacity="1"><tspan>25%</tspan></text><text x="38" style="color:#000000;cursor:default;font-size:11px;fill:#000000;" text-anchor="end" transform="translate(0,0)" y="217" opacity="1"><tspan>50%</tspan></text><text x="38" style="color:#000000;cursor:default;font-size:11px;fill:#000000;" text-anchor="end" transform="translate(0,0)" y="148" opacity="1"><tspan>75%</tspan></text><text x="38" style="color:#000000;cursor:default;font-size:11px;fill:#000000;" text-anchor="end" transform="translate(0,0)" y="80" opacity="1"><tspan>100%</tspan></text></g><text x="10" class="highcharts-credits" text-anchor="start" style="cursor:default;color:#000000;font-size:10px;fill:#000000;" y="400"><tspan>Quelle: Statistisches Amt Basel-Stadt, kantonale Gebäude- und Wohnungsstatistik</tspan></text></svg>

<svg class="highcharts-root" xmlns="http://www.w3.org/2000/svg" viewBox="0 0 485 415" font-family="Arial" font-size="12">
    <defs>
        <clipPath id="a">
            <path fill="none" d="M0 0h218v275H0z"/>
        </clipPath>
    </defs>
    <rect fill="#fbfbfb" class="highcharts-background" width="485" height="415" rx="0" ry="0"/>
    <path fill="none" class="highcharts-plot-background" d="M53 75h218v275H53z"/>
    <g class="highcharts-grid highcharts-xaxis-grid">
        <path fill="none" class="highcharts-grid-line" d="M80.5 75v275m54-275v275m54-275v275m54-275v275"/>
    </g>
    <g class="highcharts-grid highcharts-yaxis-grid">
        <path fill="none" stroke="#e6e6e6" class="highcharts-grid-line" d="M53 350.5h218m-218-69h218m-218-68h218m-218-69h218m-218-70h218"/>
    </g>
    <path fill="none" class="highcharts-plot-border" d="M53 75h218v275H53z"/>
    <g class="highcharts-axis highcharts-xaxis">
        <path fill="none" class="highcharts-tick" stroke="#FFF" d="M80.5 350v10m54-10v10m54-10v10m54-10v10"/>
        <path fill="none" class="highcharts-axis-line" stroke="#ccd6eb" d="M53 350.5h218"/>
    </g>
    <g class="highcharts-axis highcharts-yaxis">
        <path fill="none" class="highcharts-axis-line" d="M53 75v275"/>
    </g>
    <g class="highcharts-series-group">
        <g class="highcharts-series highcharts-series-0 highcharts-column-series highcharts-color-undefined highcharts-tracker" transform="translate(53 75)" clip-path="url(#a)">
            <path fill="#662673" class="highcharts-point" stroke="#fff" d="M15.5-.5h26v3h-26zm53 0h26v3h-26zm54 0h26v3h-26zm54 0h26v3h-26z"/>
        </g>
        <g class="highcharts-series highcharts-series-1 highcharts-column-series highcharts-color-undefined highcharts-tracker" transform="translate(53 75)" clip-path="url(#a)">
            <path fill="#73B97C" class="highcharts-point" stroke="#fff" d="M15.5 2.5h26v41h-26zm53 0h26v41h-26zm54 0h26v41h-26zm54 0h26v41h-26z"/>
        </g>
        <g class="highcharts-series highcharts-series-2 highcharts-column-series highcharts-color-undefined highcharts-tracker" transform="translate(53 75)" clip-path="url(#a)">
            <path fill="#008AC3" class="highcharts-point" stroke="#fff" d="M15.5 43.5h26v28h-26zm53 0h26v28h-26zm54 0h26v28h-26zm54 0h26v28h-26z"/>
        </g>
        <g class="highcharts-series highcharts-series-3 highcharts-column-series highcharts-color-undefined highcharts-tracker" transform="translate(53 75)" clip-path="url(#a)">
            <path fill="#CD9C00" class="highcharts-point" stroke="#fff" d="M15.5 71.5h26v204h-26zm53 0h26v204h-26zm54 0h26v204h-26zm54 0h26v204h-26z"/>
        </g>
    </g>
    <text x="10" class="highcharts-title" y="21" color="#000" font-size="14" font-weight="700">
        <tspan>Wohnungsbelegung</tspan>
    </text>
    <text x="10" class="highcharts-subtitle" y="40" color="#000" font-weight="400">
        <tspan>nach Belegungsart</tspan>
    </text>
    <g class="highcharts-legend" transform="translate(283 154)">
        <rect fill="none" class="highcharts-legend-box" rx="0" ry="0" width="191" height="87"/>
        <g class="highcharts-legend-item highcharts-column-series highcharts-color-undefined highcharts-series-0">
            <text x="21" y="15" color="#333" font-weight="400" cursor="pointer" fill="#333" transform="translate(8 3)">
                <tspan>sonstige Wohnungen</tspan>
            </text>
            <path fill="#662673" class="highcharts-point" d="M10 7h12v12H10z"/>
        </g>
        <g class="highcharts-legend-item highcharts-column-series highcharts-color-undefined highcharts-series-1">
            <text x="21" y="15" color="#333" font-weight="400" cursor="pointer" fill="#333" transform="translate(8 22)">
                Eigentümerwohnungen
            </text>
            <path fill="#73B97C" class="highcharts-point" d="M10 26h12v12H10z"/>
        </g>
        <g class="highcharts-legend-item highcharts-column-series highcharts-color-undefined highcharts-series-2">
            <text x="21" y="15" color="#333" font-weight="400" cursor="pointer" fill="#333" transform="translate(8 41)">
                Genossenschaftswohnungen
            </text>
            <path fill="#008AC3" class="highcharts-point" d="M10 45h12v12H10z"/>
        </g>
        <g class="highcharts-legend-item highcharts-column-series highcharts-color-undefined highcharts-series-3">
            <text x="21" y="15" color="#333" font-weight="400" cursor="pointer" fill="#333" transform="translate(8 60)">
                Mietwohnungen
            </text>
            <path fill="#CD9C00" class="highcharts-point" d="M10 64h12v12H10z"/>
        </g>
    </g>
    <g class="highcharts-axis-labels highcharts-xaxis-labels" text-anchor="middle" color="#000" cursor="default" font-size="11">
        <text x="81.458" y="369">
            <tspan>2013</tspan>
        </text>
        <text x="135.153" y="369">
            <tspan>2014</tspan>
        </text>
        <text x="188.847" y="369">
            <tspan>2015</tspan>
        </text>
        <text x="242.542" y="369">
            <tspan>2016</tspan>
        </text>
    </g>
    <g class="highcharts-axis-labels highcharts-yaxis-labels" text-anchor="end" color="#000" cursor="default" font-size="11">
        <text x="38" y="355">
            <tspan>0%</tspan>
        </text>
        <text x="38" y="286">
            <tspan>25%</tspan>
        </text>
        <text x="38" y="217">
            <tspan>50%</tspan>
        </text>
        <text x="38" y="148">
            <tspan>75%</tspan>
        </text>
        <text x="38" y="80">
            <tspan>100%</tspan>
        </text>
    </g>
    <text x="10" class="highcharts-credits" y="400" cursor="default" color="#000" font-size="10">
        <tspan>Quelle: Statistisches Amt Basel-Stadt, kantonale Gebäude- und Wohnungsstatistik</tspan>
    </text>
</svg>
